X: 1
T: Catch the Wind
T: 8x32 R 3C Island Bay Collection
T: Tune selection:  Liz Donaldson
P: Master Erskine
C: Niel Gow, collected from Liz Donaldson
C: arr. T. Traub 11-19-2002
R: Reel
M: 4/4
L: 1/8
K: C
|: A2|"C"GcBc GcBc|"C"ecgc acgc|"C"GcBc "Am"GcBc|"D"e2 d2 "G"d4| "C"GcBc GcBc|
"C"ecgc acgc|"C"GcBd "G"cagf|"C"e2 c2 c2 :||: ef|"C"gagf efed|"F"cdcB AGFE|
"C"EGcG EFGE|"Dm"F2 D2 "G"D2 ef|"C"gagf efed|"F"cdcB AGFE|"C"EGcG "G"Fagf|"C"e2 c2 c2 :|
